symbols/web/network_check/materialsymbolsrounded/network_check_wght500_48px.svg

<svg xmlns="http://www.w3.org/2000/svg" height="48" width="48"><path d="M22.15 39.9q-1.4-.55-2.05-2.1-.65-1.55.1-3.05.4-.75 2-4t3.5-7.225q1.9-3.975 3.725-7.725 1.825-3.75 2.625-5.45.15-.4.55-.575.4-.175.85-.025.45.1.7.475.25.375.15.775-.45 1.8-1.475 5.95l-2.1 8.5Q29.65 29.8 28.7 33.375T27.45 37.7q-.65 1.6-2.25 2.175-1.6.575-3.05.025ZM46.3 20.25q-.65.7-1.65.7-1 0-1.75-.65-1.65-1.4-3.425-2.575Q37.7 16.55 36.1 15.75l1.2-4.8q2.65 1.2 4.85 2.725 2.2 1.525 4.2 3.275.7.6.7 1.575t-.75 1.725Zm-44.6 0q-.7-.7-.725-1.7-.025-1 .675-1.6 4.6-4.2 10.325-6.575T24 8q1.2 0 2.725.125 1.525.125 2.925.375l-2.3 4.5q-.7-.05-1.55-.125-.85-.075-1.8-.075-5.3 0-10.05 2.025Q9.2 16.85 5.1 20.3q-.75.65-1.75.625-1-.025-1.65-.675Zm36.2 8.4q-.65.65-1.5.675-.85.025-1.55-.525-.55-.4-.95-.7-.4-.3-.7-.55l1.1-4.7q.75.4 1.65 1.075.9.675 1.95 1.525.7.65.7 1.575 0 .925-.7 1.625Zm-27.75.05q-.75-.75-.7-1.7.05-.95.65-1.55 3-2.6 6.375-4.025Q19.85 20 24.05 20l-2.5 5.1q-2.25.25-4.25 1.2t-3.75 2.45q-.8.6-1.75.625-.95.025-1.65-.675Z"/></svg>

<svg xmlns="http://www.w3.org/2000/svg" height="48" width="48"><path d="M22.15 39.9Q20.75 39.35 20.1 37.8Q19.45 36.25 20.2 34.75Q20.6 34 22.2 30.75Q23.8 27.5 25.7 23.525Q27.6 19.55 29.425 15.8Q31.25 12.05 32.05 10.35Q32.2 9.95 32.6 9.775Q33 9.6 33.45 9.75Q33.9 9.85 34.15 10.225Q34.4 10.6 34.3 11Q33.85 12.8 32.825 16.95Q31.8 21.1 30.725 25.45Q29.65 29.8 28.7 33.375Q27.75 36.95 27.45 37.7Q26.8 39.3 25.2 39.875Q23.6 40.45 22.15 39.9ZM46.3 20.25Q45.65 20.95 44.65 20.95Q43.65 20.95 42.9 20.3Q41.25 18.9 39.475 17.725Q37.7 16.55 36.1 15.75L37.3 10.95Q39.95 12.15 42.15 13.675Q44.35 15.2 46.35 16.95Q47.05 17.55 47.05 18.525Q47.05 19.5 46.3 20.25ZM1.7 20.25Q1 19.55 0.975 18.55Q0.95 17.55 1.65 16.95Q6.25 12.75 11.975 10.375Q17.7 8 24 8Q25.2 8 26.725 8.125Q28.25 8.25 29.65 8.5L27.35 13Q26.65 12.95 25.8 12.875Q24.95 12.8 24 12.8Q18.7 12.8 13.95 14.825Q9.2 16.85 5.1 20.3Q4.35 20.95 3.35 20.925Q2.35 20.9 1.7 20.25ZM37.9 28.65Q37.25 29.3 36.4 29.325Q35.55 29.35 34.85 28.8Q34.3 28.4 33.9 28.1Q33.5 27.8 33.2 27.55L34.3 22.85Q35.05 23.25 35.95 23.925Q36.85 24.6 37.9 25.45Q38.6 26.1 38.6 27.025Q38.6 27.95 37.9 28.65ZM10.15 28.7Q9.4 27.95 9.45 27Q9.5 26.05 10.1 25.45Q13.1 22.85 16.475 21.425Q19.85 20 24.05 20L21.55 25.1Q19.3 25.35 17.3 26.3Q15.3 27.25 13.55 28.75Q12.75 29.35 11.8 29.375Q10.85 29.4 10.15 28.7Z"/></svg>
